svg/fluentui-system-icons/ic_fluent_lock_closed_key_16_filled.svg

<svg width="16" height="16" viewBox="0 0 16 16" fill="none" xmlns="http://www.w3.org/2000/svg">
<path d="M7.83562 1.50532L8 1.5C9.32548 1.5 10.41 2.53154 10.4947 3.83562L10.5 4V5H11.5C12.1539 5 12.7101 5.41846 12.9154 6.00222C12.4158 6.02144 11.9337 6.12186 11.4755 6.30776C10.9956 6.50253 10.5676 6.78304 10.1981 7.14557C9.83386 7.50293 9.54431 7.91696 9.33228 8.38207C9.10885 8.87217 9 9.39453 9 9.9375C9 10.078 9.00716 10.2195 9.02101 10.3617L6.44133 12.9413C6.16185 13.2208 6 13.5896 6 14H4.5C3.67157 14 3 13.3284 3 12.5V6.5C3 5.67157 3.67157 5 4.5 5H5.5V4C5.5 2.67452 6.53154 1.58996 7.83562 1.50532ZM6.5 5H9.5V4C9.5 3.2203 8.90511 2.57955 8.14446 2.50687L8 2.5C7.2203 2.5 6.57955 3.09489 6.50687 3.85554L6.5 4V5ZM8 8.5C7.44772 8.5 7 8.94772 7 9.5C7 10.0523 7.44772 10.5 8 10.5C8.55228 10.5 9 10.0523 9 9.5C9 8.94772 8.55228 8.5 8 8.5ZM7.14844 15.8516C7.2474 15.9505 7.36458 16 7.5 16H9.5C9.61458 15.9948 9.70573 15.9714 9.77344 15.9297C9.84115 15.888 9.89062 15.8307 9.92188 15.7578C9.95312 15.6849 9.97396 15.6068 9.98438 15.5234C9.99479 15.4401 10 15.3542 10 15.2656V15C10.2396 14.9948 10.4271 14.987 10.5625 14.9766C10.6979 14.9661 10.7995 14.9271 10.8672 14.8594C10.9349 14.7917 10.974 14.6927 10.9844 14.5625C10.9948 14.4323 11 14.2448 11 14H11.5C11.6094 14 11.6979 13.9766 11.7656 13.9297C11.8333 13.8828 11.8854 13.8255 11.9219 13.7578C11.9583 13.6901 11.9818 13.612 11.9922 13.5234C12.0026 13.4349 12.0078 13.3438 12.0078 13.25C12.0026 13.1719 12 13.0964 12 13.0234V12.8281C12.1719 12.8906 12.3464 12.9349 12.5234 12.9609C12.7005 12.987 12.8802 13 13.0625 13C13.4792 12.9948 13.862 12.9141 14.2109 12.7578C14.5599 12.6016 14.8698 12.3828 15.1406 12.1016C15.4115 11.8203 15.6224 11.5 15.7734 11.1406C15.9245 10.7812 16 10.401 16 10C16 9.58333 15.9219 9.19271 15.7656 8.82812C15.6094 8.46354 15.3958 8.14583 15.125 7.875C14.8542 7.60417 14.5365 7.39062 14.1719 7.23438C13.8073 7.07812 13.4167 7 13 7C12.5938 7.01042 12.2109 7.08854 11.8516 7.23438C11.4922 7.38021 11.1745 7.58854 10.8984 7.85938C10.6224 8.13021 10.4036 8.44271 10.2422 8.79688C10.0807 9.15104 10 9.53125 10 9.9375C10 10.1823 10.0286 10.4401 10.0859 10.7109L7.14844 13.6484C7.04948 13.7474 7 13.8646 7 14V15.5C7 15.6354 7.04948 15.7526 7.14844 15.8516ZM14.2812 8.71875C14.4271 8.86458 14.5 9.04167 14.5 9.25C14.5 9.45833 14.4271 9.63542 14.2812 9.78125C14.1354 9.92708 13.9583 10 13.75 10C13.5417 10 13.3646 9.92708 13.2188 9.78125C13.0729 9.63542 13 9.45833 13 9.25C13 9.04167 13.0729 8.86458 13.2188 8.71875C13.3646 8.57292 13.5417 8.5 13.75 8.5C13.9583 8.5 14.1354 8.57292 14.2812 8.71875Z" fill="#212121"/>
</svg>

<svg xmlns="http://www.w3.org/2000/svg" width="16" height="16"><path d="M7.836 1.505 8 1.5a2.5 2.5 0 0 1 2.495 2.336L10.5 4v1h1a1.5 1.5 0 0 1 1.415 1.002c-.5.02-.981.12-1.44.306a3.91 3.91 0 0 0-1.277.838 4.108 4.108 0 0 0-.866 1.236A3.717 3.717 0 0 0 9 9.938c0 .14.007.281.021.424l-2.58 2.58A1.48 1.48 0 0 0 6 14H4.5A1.5 1.5 0 0 1 3 12.5v-6A1.5 1.5 0 0 1 4.5 5h1V4a2.5 2.5 0 0 1 2.336-2.495ZM6.5 5h3V4a1.5 1.5 0 0 0-1.356-1.493L8 2.5a1.5 1.5 0 0 0-1.493 1.356L6.5 4v1ZM8 8.5a1 1 0 1 0 0 2 1 1 0 0 0 0-2Zm-.852 7.352A.48.48 0 0 0 7.5 16h2a.569.569 0 0 0 .273-.07.367.367 0 0 0 .149-.172.864.864 0 0 0 .062-.235 2.15 2.15 0 0 0 .016-.257V15c.24-.005.427-.013.563-.023a.468.468 0 0 0 .304-.118.457.457 0 0 0 .117-.296c.01-.13.016-.318.016-.563h.5c.11 0 .198-.023.266-.07a.492.492 0 0 0 .156-.172.65.65 0 0 0 .07-.235c.01-.088.016-.18.016-.273a3.412 3.412 0 0 1-.008-.227v-.195c.172.063.346.107.523.133.178.026.357.039.54.039a2.866 2.866 0 0 0 2.078-.898c.27-.282.481-.602.632-.961.152-.36.227-.74.227-1.141 0-.417-.078-.807-.234-1.172a3.01 3.01 0 0 0-.641-.953 3.01 3.01 0 0 0-.953-.64A2.943 2.943 0 0 0 13 7a3.25 3.25 0 0 0-1.148.234c-.36.146-.678.355-.954.625a3.124 3.124 0 0 0-.656.938A2.716 2.716 0 0 0 10 9.937c0 .245.029.503.086.774l-2.938 2.937A.48.48 0 0 0 7 14v1.5c0 .135.05.253.148.352Zm7.133-7.133a.723.723 0 0 1 .219.531.723.723 0 0 1-.219.531.723.723 0 0 1-.531.219.723.723 0 0 1-.531-.219A.723.723 0 0 1 13 9.25c0-.208.073-.385.219-.531a.723.723 0 0 1 .531-.219c.208 0 .385.073.531.219Z"/></svg>
